!!!COM:	Pierre de la Rue
**kern	**kern
*part2	*part1
*staff2	*staff1
*clefF4	*clefGv2
*k[b-]	*k[b-]
*M3/1	*M3/1
=1-	=1-
0C	1c
.	2.c
.	4B-
1C	2A
.	[2G
=2	=2
1BB-	4G]
.	4F
.	2D
2.C	2E
.	2.C
4BB-	.
2AA	.
.	4D
2GG	2E
=3	=3
2GG	2D
2.C	2C
.	1G
4BB-	.
2GG	.
2AA	2F
[2FF	[2A
=4	=4
4FF]	4A]
4GG	4B-
2AA	2.c
2GG	.
.	4B-
2FF	4A
.	4G
1C	2A
.	[2G
=5	=5
2BB-	4G]
.	4B-
2D	1A
4C	.
4BB-	.
4AA	1G
4GG	.
1AA	.
.	2F
=6	=6
1GG	0.G
2r	.
2.GG	.
4AA	.
2BB-	.
=7	=7
2C	2r
2.D	2.F
4C	4G
2AA	2A
2D	2B-
2C	[2c
=8	=8
1E	4c]
.	4B-
.	2G
2.D	2F
.	1B-
4C	.
4BB-	.
4AA	.
2GG	2B-
=9	=9
2FF	2.A
1C	.
.	4G
.	4F
.	4E
2BB-	2D
2.C	2C
.	[2G
4BB-	.
=10	=10
2C	2G]
2D	2F
2E	2.G
2.C	.
.	4F
.	2G
4BB-	.
2C	2A
=11	=11
2D	2B-
2E	1G
1C	.
.	1c
1D	.
.	2B-
=12	=12
0.C	0.c
==	==
*-	*-
